X: 1
T:As Far As I Can Go
M:4/4
L:1/8
Q:120
C:Marcus Turner
K:Am
"RAPIDLY!"AA|:"Am"AAAc BAAA|AAAc BAAA|
"F"AAAc BAAA|AAAc BAAA|!
"Dm"AAAc BAAA|AAAc BAAA|
"G"GGGB AGGG|
1 GGGB AGG^G:|
2 GGGB AGd^d||!
"C"eeeg feee|eeeg feee|
"F"fffa gfff|fffa gfff|!
"Dm"fffa gfff|fffa gff^f|
"G"ggga gfdB|"C"c4-c2B:||
